svgs/sharp-solid/signature-lock.svg

<svg xmlns="http://www.w3.org/2000/svg" viewBox="0 0 640 512"><!--! Font Awesome Pro 6.6.0 by @fontawesome - https://fontawesome.com License - https://fontawesome.com/license (Commercial License) Copyright 2024 Fonticons, Inc. --><path d="M96 128c0-17.7 14.3-32 32-32s32 14.3 32 32l0 7.8c0 27.7-2.4 55.3-7.1 82.5l-130 39L0 264.2 0 288 0 448l0 32 32 0 64 0 18.6 0 9.2-16.1 25.5-44.7c26.8-47 46.5-97.7 58.4-150.5L288 244.6l0 43.4 0 32 32 0 32 0 32 0 0-32 0-32-32 0 0-54.4 0-43-41.2 12.4-90.4 27.1c2.4-20.7 3.6-41.4 3.6-62.3l0-7.8c0-53-43-96-96-96s-96 43-96 96l0 32 0 32 64 0 0-32 0-32zM209.9 368c-6.7 16.3-14.2 32.3-22.3 48L384 416l0-48-174.1 0zM64 311.8l71.8-21.5c-10.4 33.8-24.5 66.4-42.1 97.2L77.4 416 64 416l0-104.2zM528 240c17.7 0 32 14.3 32 32l0 48-64 0 0-48c0-17.7 14.3-32 32-32zm-80 32l0 48-32 0 0 192 224 0 0-192-32 0 0-48c0-44.2-35.8-80-80-80s-80 35.8-80 80z"/></svg>

<svg xmlns="http://www.w3.org/2000/svg" viewBox="0 0 640 512"><!--! Font Awesome Pro 6.5.2 by @fontawesome - https://fontawesome.com License - https://fontawesome.com/license (Commercial License) Copyright 2024 Fonticons, Inc. --><path d="M96 128c0-17.7 14.3-32 32-32s32 14.3 32 32v7.8c0 27.7-2.4 55.3-7.1 82.5l-130 39L0 264.2V288 448v32H32 96h18.6l9.2-16.1 25.5-44.7c26.8-47 46.5-97.7 58.4-150.5L288 244.6V288v32h32 32 32V288 256H352V201.6v-43l-41.2 12.4-90.4 27.1c2.4-20.7 3.6-41.4 3.6-62.3V128c0-53-43-96-96-96s-96 43-96 96v32 32H96V160 128zM209.9 368c-6.7 16.3-14.2 32.3-22.3 48H384l0-48H209.9zM64 311.8l71.8-21.5c-10.4 33.8-24.5 66.4-42.1 97.2L77.4 416H64V311.8zM528 240c17.7 0 32 14.3 32 32v48H496V272c0-17.7 14.3-32 32-32zm-80 32v48H416V512H640V320H608V272c0-44.2-35.8-80-80-80s-80 35.8-80 80z"/></svg>
